!!!OTL: ICH HOERT EIN SICHLEIN
!!!ARE: Europa, Mitteleuropa, Deutschland
!!!SCT: E0678
!!!YEM: Copyright 1995, estate of Helmut Schaffrath.
**kern
*ICvox
*Ivox
*M4/4
*k[b-]
*F:
{4f
=1
4f
4a
4g
4f
=2
2cc
4cc}
{4f
=3
4cc
4cc
4b-
4a
=4
2g
4r}
{4cc
=5
4b-
4a
4g
4f
=6
2cc
4a}
{4f
=7
4g
4a
4b-
4g
=8
2f
4r}
{4cc
=9
4b-
4a
4g
4f
=10
2cc
4a}
{4f
=11
4g
4a
4b-
4g
=12
2f
4r}
==
!!!AGN: Liebes - Lied, Leid, Klage
!!!ONB: ESAC (Essen Associative Code) Database: ERK2
!!!AMT: simple quadruple
!!!AIN: vox
!!!EED: Helmut Schaffrath
!!!EEV: 1.0
*-
